Radio/Source/Radio France Internationale.svg

<svg enable-background="new 0 0 141.057 141.058" height="106.589" viewBox="0 0 105.788 106.589" width="105.788" xmlns="http://www.w3.org/2000/svg"><g fill="#e2001a" transform="translate(-17.626 -16.842)"><path d="m23.922 66.707h-.311v-15.061h-5.985v71.784h5.985v-40.974c0-13.107 6.492-25.77 19.612-26.575v-5.36c-10.092.541-16.426 7.131-19.301 16.186"/><path d="m88.623 51.663h34.791v71.768h-34.791zm34.791-10.561h-34.791v-23.477h34.791z"/><path d="m62.566 44.047c0-9.532 1.377-16.708 12.563-16.708.881 0 1.809.042 2.701.129v-10.364c-1.443-.154-2.967-.262-4.633-.262-19.189 0-23.61 11.183-23.61 28.301v6.496 10.494 61.297h12.979v-61.298h15.264v-10.494h-15.264z"/></g></svg>

<?xml version="1.0" encoding="UTF-8" standalone="no"?>
<!-- Generator: Adobe Illustrator 17.0.0, SVG Export Plug-In . SVG Version: 6.00 Build 0)  -->

<svg
   xmlns:dc="http://purl.org/dc/elements/1.1/"
   xmlns:cc="http://creativecommons.org/ns#"
   xmlns:rdf="http://www.w3.org/1999/02/22-rdf-syntax-ns#"
   xmlns:svg="http://www.w3.org/2000/svg"
   xmlns="http://www.w3.org/2000/svg"
   xmlns:sodipodi="http://sodipodi.sourceforge.net/DTD/sodipodi-0.dtd"
   xmlns:inkscape="http://www.inkscape.org/namespaces/inkscape"
   version="1.1"
   id="Calque_1"
   x="0px"
   y="0px"
   width="105.788"
   height="106.589"
   viewBox="0 0 105.788 106.589"
   enable-background="new 0 0 141.057 141.058"
   xml:space="preserve"
   sodipodi:docname="Radio France Internationale.svg"
   inkscape:version="0.92.0 r15299"><metadata
     id="metadata17"><rdf:RDF><cc:Work
         rdf:about=""><dc:format>image/svg+xml</dc:format><dc:type
           rdf:resource="http://purl.org/dc/dcmitype/StillImage" /><dc:title></dc:title></cc:Work></rdf:RDF></metadata><defs
     id="defs15" /><sodipodi:namedview
     pagecolor="#ffffff"
     bordercolor="#666666"
     borderopacity="1"
     objecttolerance="10"
     gridtolerance="10"
     guidetolerance="10"
     inkscape:pageopacity="0"
     inkscape:pageshadow="2"
     inkscape:window-width="1920"
     inkscape:window-height="1017"
     id="namedview13"
     showgrid="false"
     fit-margin-top="0"
     fit-margin-left="0"
     fit-margin-right="0"
     fit-margin-bottom="0"
     inkscape:zoom="1.6730707"
     inkscape:cx="52.902503"
     inkscape:cy="52.902001"
     inkscape:window-x="-8"
     inkscape:window-y="-8"
     inkscape:window-maximized="1"
     inkscape:current-layer="Calque_1" /><g
     id="g10"
     style="fill:#e2001a;fill-opacity:1"
     transform="translate(-17.626,-16.842)"><path
       d="M 23.922,66.707 H 23.611 V 51.646 h -5.985 v 71.784 h 5.985 V 82.456 c 0,-13.107 6.492,-25.77 19.612,-26.575 v -5.36 C 33.131,51.062 26.797,57.652 23.922,66.707"
       id="path4"
       inkscape:connector-curvature="0"
       style="fill:#e2001a;fill-opacity:1" /><path
       d="m 88.623,51.663 h 34.791 v 71.768 H 88.623 Z M 123.414,41.102 H 88.623 V 17.625 h 34.791 z"
       id="path6"
       inkscape:connector-curvature="0"
       style="fill:#e2001a;fill-opacity:1" /><path
       d="m 62.566,44.047 c 0,-9.532 1.377,-16.708 12.563,-16.708 0.881,0 1.809,0.042 2.701,0.129 V 17.104 c -1.443,-0.154 -2.967,-0.262 -4.633,-0.262 -19.189,0 -23.61,11.183 -23.61,28.301 v 6.496 10.494 61.297 H 62.566 V 62.132 H 77.83 V 51.638 H 62.566 Z"
       id="path8"
       inkscape:connector-curvature="0"
       style="fill:#e2001a;fill-opacity:1" /></g></svg>
